!!!OTL: Folk song Number 2
!!!CNT: Chinese
**kern
*k[b-e-]
*M2/4
=1
4cc
4cc
=2
8ff
(4cc
8b-)
=3
(8g
8cc)
(8d
8f)
=4
4g
4r
=5
4cc
4cc
=6
8ff
(4cc
8b-)
=7
(8g
8cc)
(8d
8f)
=8
4g
4r
=9
(8ff
8dd)
8ff
8dd
=10
8cc
(8ff
8dd
8ff)
!! page 2
=11
4cc
(8b-
8g)
=12
2cc
=13
8g
16g
16g
8g
8b-
=14
(8g
8f)
(8e-
8d)
=15
2c
=16
8f
4e-
8f
=17
2g
=18
2cc
=19
4g
(8a
8g)
=20
2f
=21
(8g
8f)
(8e-
8d)
=22
2c
==
*-
!!!PPR: Yin yueh ch'u pan she
!!!OPR: Chung-kuo min ko Chung-kuo yin yueh yen chiu so pien [Chinese folk songs]
!!!OCL: Chung-kuo yin yueh yen chiu so
!!!PPP: Beijing, China
!!!PDT: 1959///
!!!SML: Edward Johnson Library, University of Toronto M1804.C4694C5
!!!PPG: pp.1-2
!!!ENC: David Huron
!!!EMD: Paul von Hippel updated this file in the following ways (1998/9/29/):
!!!EMD:  (1) changed the representation of slurs from curly braces to parentheses 
!!!EMD:  (2) changed freeform comments into reference records and tandem interpretations
!!!EMD:  (3) corrected the author, title, author, and call number of the printed source 
!!!EEV: Version 2.0
